static/images/clients/svg/volvo.svg

<svg fill="none" height="18" viewBox="0 0 131 18" width="131" xmlns="http://www.w3.org/2000/svg"><g clip-rule="evenodd" fill="#282828" fill-rule="evenodd"><path d="m0 .772461v2.388799h3.91821l7.66779 14.38004h9.4357l7.6678-14.40391 3.9176-.0247.0085-2.340229h-11.7218v2.348409h3.1216l-5.4146 10.22313-5.8558-10.18748 4.2712-.01913-.0076-2.364929z"/><path d="m75.6208.772461v2.388799h3.9171l7.668 14.38004h9.436l7.6681-14.40391 3.918-.0247.007-2.340229h-11.7198v2.348409h3.1203l-5.4145 10.22313-5.8564-10.18748 4.2724-.01913-.008-2.364929z"/><path d="m56.3414.77238v2.3888h3.9176l.0065 11.74012h-4.1301v2.6167l4.1329.0234h19.5611v-7.80565h-2.548c-.1397 4.13275-3.7248 5.17105-5.2349 5.17105-1.3837 0-4.0647-.0054-4.0647-.0054v-11.74496l3.8586-.0193-.0052-2.364923h-15.4938z"/><path d="m42.9792 15.3938c-2.3476 0-4.2497-2.8121-4.2497-6.28268 0-3.47142 1.9021-6.28559 4.2497-6.28559 2.3469 0 4.2497 2.81417 4.2497 6.28559 0 3.47058-1.9028 6.28268-4.2497 6.28268zm.1727-15.103273c-6.6593 0-12.0575 3.965313-12.0575 8.854773 0 4.8898 5.398 8.8546 12.0575 8.8546 6.6588 0 12.0578-3.9648 12.0578-8.8546 0-4.88946-5.399-8.854773-12.0578-8.854773z"/><path d="m118.6 15.3492c-2.346 0-4.248-2.8586-4.248-6.38665 0-3.5267 1.902-6.38601 4.248-6.38601 2.347 0 4.249 2.85931 4.249 6.38601 0 3.52785-1.902 6.38665-4.249 6.38665zm.174-15.3492c-6.661 0-12.057 4.02991-12.057 8.99918 0 4.96912 5.396 8.99822 12.057 8.99822 6.658 0 12.057-4.0291 12.057-8.99822 0-4.96927-5.399-8.99918-12.057-8.99918z"/></g></svg>

<svg width="131" height="18" viewBox="0 0 131 18" fill="none" xmlns="http://www.w3.org/2000/svg">
<path fill-rule="evenodd" clip-rule="evenodd" d="M0 0.772461V3.16126H3.91821L11.586 17.5413H21.0217L28.6895 3.13739L32.6071 3.11269L32.6156 0.772461H20.8938V3.12087H24.0154L18.6008 13.344L12.745 3.15652L17.0162 3.13739L17.0086 0.772461H0Z" fill="#282828"/>
<path fill-rule="evenodd" clip-rule="evenodd" d="M75.6208 0.772461V3.16126H79.5379L87.2059 17.5413H96.6419L104.31 3.13739L108.228 3.11269L108.235 0.772461H96.5152V3.12087H99.6355L94.221 13.344L88.3646 3.15652L92.637 3.13739L92.629 0.772461H75.6208Z" fill="#282828"/>
<path fill-rule="evenodd" clip-rule="evenodd" d="M56.3414 0.77238V3.16118H60.259L60.2655 14.9013H56.1354V17.518L60.2683 17.5414H79.8294V9.73575H77.2814C77.1417 13.8685 73.5566 14.9068 72.0465 14.9068C70.6628 14.9068 67.9818 14.9014 67.9818 14.9014V3.15644L71.8404 3.13714L71.8352 0.772217H56.3414V0.77238Z" fill="#282828"/>
<path fill-rule="evenodd" clip-rule="evenodd" d="M42.9792 15.3938C40.6316 15.3938 38.7295 12.5817 38.7295 9.11112C38.7295 5.6397 40.6316 2.82553 42.9792 2.82553C45.3261 2.82553 47.2289 5.6397 47.2289 9.11112C47.2289 12.5817 45.3261 15.3938 42.9792 15.3938ZM43.1519 0.290527C36.4926 0.290527 31.0944 4.25584 31.0944 9.1453C31.0944 14.0351 36.4924 17.9999 43.1519 17.9999C49.8107 17.9999 55.2097 14.0351 55.2097 9.1453C55.2097 4.25584 49.8107 0.290527 43.1519 0.290527Z" fill="#282828"/>
<path fill-rule="evenodd" clip-rule="evenodd" d="M118.6 15.3492C116.254 15.3492 114.352 12.4906 114.352 8.96255C114.352 5.43585 116.254 2.57654 118.6 2.57654C120.947 2.57654 122.849 5.43585 122.849 8.96255C122.849 12.4904 120.947 15.3492 118.6 15.3492ZM118.774 0C112.113 0 106.717 4.02991 106.717 8.99918C106.717 13.9683 112.113 17.9974 118.774 17.9974C125.432 17.9974 130.831 13.9683 130.831 8.99918C130.831 4.02991 125.432 0 118.774 0Z" fill="#282828"/>
</svg>
